X: 9523
T: Darkey's Dream
R: barndance
M: 4/4
K: Gmajor
|:D>D EF G>B- B2|A2 GA B d2 f|(3gag fe dBGA|1 B A2 G A2 B2:|2 BG A2 G4||
gfga bgdB|de d/e/d/B/ d>f- f2|gfga bgdc|(3BcB A^G A2- A>f|
gfga bgdB|de d/e/d/B/ d2 df|gafg efde|(3cdc Bc A2 d2||
|:D>D EF G>B- B2|A2 GA B d2 f|(3gag fe dBGA|1 B A2 G A2 B2:|2 BG A2 G4||

